!! 00000] TT[WS
!!!OTL: Lianhua lao
!!!ARE: Asia, China, Shanxi Heshun
!! Ethnic Group: Han
!! WI, 195 (1)
!!!SCT: J0232
!!!YEM: Copyright 1995, estate of Helmut Schaffrath.
**kern
*ICvox
*Ivox
*M2/4
*k[f#]
*G:
{8dd
8b
4dd
=1
8b
4dd
8ee
=2
8b
8a
8g
8e
=3
8a
8a
8a
8b
=4
2dd}
=5
{8dd
8ee
8dd
8b
=6
8a
8b
8a
8g
=7
8a
8f#
[4e
=8
4e]
8b
8b
=9
8b
8g
[4a
=10
4a]}
{8b
8a
=11
4b
8e
[8g
=12
4g]
8e
8e
=13
8b
8a
8g
8a
=14
8f#
8e
[4d
=15
4d]}
{8e
8e
=16
8f#
8e
[4g
=17
4g]
8e
8a
=18
8f#
8e
[4d
=19
4d]
4r}
==
!!!AGN: Xiaodiao, Fengsuge
!!!ONB: ESAC (Essen Associative Code) Database: CHINA
!!!AMT: simple duple
!!!AIN: vox
!!!EED: Helmut Schaffrath
!!!EEV: 1.0
*-
!!!ONB: Tied note syntax fixed by Craig Sapp, 2004/05/03/
